X: 602
T: Liza Lynn
B: good tune book
B: tunes
M:3/4
R: waltz
Q: 1/4=100
K:Amajor
V:1 
E2 A3 B|c4 Bc|d2 A3 F|D4 F2|
 E2 G2 B2|g2 f2 g2|a2 ef ed|c4 CD|
 E2 A2 B2|c4 Bc|d2 A2 F2|D4 F2|
 E2 G2 B2|g2 f2 g2|a2 ag ab|a4||
 ea az zA|Ac cz zA|df fd Bd|F3 A GF|
 E2 G2 B2|g2 f2 g2|1 a2 ef ed|c3 B cd|2 a2 ag ab|a4:|
% abcbook-tune_id 63dce5e93f41c46bf990960a
% abcbook-tune_composer_id 
% abcbook-link-0 https://www.youtube.com/watch?v=8V6bIn5OGc8
% abcbook-boost 0
% abcbook-difficulty 0
% abcbook-tags good tune book
% abcbook-tablature 
% abcbook-transpose 
% abcbook-tuning 
% abcbook-lastupdated 1675475253622
% abcbook-soundfonts 
% abcbook-repeats 1


